X:1
T:Title
%%score { ( 1 3 4 ) | ( 2 5 6 ) }
L:1/8
M:3/4
K:D
V:1 treble nm="Grand Piano"
V:3 treble 
V:4 treble 
V:2 bass 
V:5 bass 
V:6 bass 
V:1
 z2 z2[Q:1/4=92] FG | [FB]4 z2[K:bass] | G,G, G,2 E[K:treble]F | [CEG][CFA] [Ac][GB] [Gc][Ge] | %4
 A-[GA-] [FA]2 FG | [FB]4 z2 | c4 z2 | [Fd][B,FB] [CEA]2 [B,D^G]2 | [A,CA]4 cc | [Ac]3 B [GB]c | %10
 [GB]2 [FA]2 FF | [A,F]3 E [G,E]F | [G,E]2 [F,D]2[K:treble] FG | [FB]4 z2 | d4 z2 | %15
 [DA]4[K:bass][K:treble] z2 | D4 z2 |[M:4/4][K:treble] z4 c4 | [FA]>^G AF [CE]2 z2 | %19
 [G,E]2 [E^G]A [GB]3 c | [ce]d[Bd]c [^GB]2 z2 | z4 e4 | [Af]>e fd [Ec]2 z2 | .c2 z2 A4 | z .B3 z4 | %25
 z4 c4 | [FA]>^G AF [CE]2[K:bass] E,A, | B,CD[K:treble]E B>c dB | [ce]2 d2 [Ac]2 z2 | z4 e4 | %30
 [^GB]>A GA [Fd]2 z2 | z4 e4 |[M:3/4] c2 B2 [A,CA]2 | z2 [FAd][Ad] [Ad][FAd] | %34
 [FAd][FAd] [FAd][Ad] [Ad]2 | z2 [FAd][Ad] [Ad][FAd] | [FAd][FAd] [EAc][Ac] [Ac]2 | z2 [EG]4 | %38
 cd e^d e2 | z2 [FA]4 | [Bd][^Ae] [=Af][^G=f] [A^f]2 | z2 e4 | [Ac]B BA A2 | AA AG z C | %44
 .[G,B,E]2 [F,D]4 | z2[K:treble] [B,DG]4- |[M:2/4] [B,DG]2 [A,DF]2- | [A,DF]2 z2 |] %48
V:2
 z2 z2 DE | D,D, z F z F, | E,E, E,2 CD | A,,A,, [A,,A,]2 [A,,A,]2 | [D,A,][D,B,] [D,A,]2 DE | %5
 D,D, z[K:treble] F DF | F-[F,F-] [F,F]2[K:bass] [F,^A,F][F,A,F] | [B,,B,]D, E,2 E,2 | %8
 A,,4[K:treble] AA | A,,A, z G z G | D,,D, D,2 A,A, | A,,,A,, z G, z A, | D,,D, D,2 DE | %13
 D,D, z F A,-[F,A,] | D-[G,D] [G,B,]2[K:treble] AG | F,E, z D z G, | D,D, D,2 z2 | %17
[M:4/4] z z/[K:treble] =C/ ^CC E3 =F | z z/ =F/ ^FD[K:bass] A,,C,E,A, | %19
 z z/[K:treble] F/ z F D2 z A | z B z A E,D,C,B,, | z z/[K:treble] ^D/ EA c3 =c | %22
 z z/ ^G/ AF[K:bass] A,,C,E,A, | z4 .F2 z D | B,^G z F E,,D,C,B,, | z z/[K:treble] =C/ ^CC E3 =F | %26
 z z/ =F/ ^FD[K:bass] A,,C, z2 | E,4- [E,^G-]2 GG | z2 B2 A,,2 z2 | z z/[K:treble] ^D/ EA c3 A | %30
 z z/ F/ =F^F[K:bass] B,,2 z2 | z E^DE z[K:treble] FEF |[M:3/4][K:bass] E2 DE A,,2 | %33
 D[K:treble]C z F FA, | F,B, z[K:treble] F F2 | DC z F F[K:bass]A, | F,B, z E[K:treble] E2 | %37
 CD A,A, z F | [EA][DF] [A,CG][A,=CF] [A,^CG]2 | DE[K:bass] D,D, z G | [D,D]2 [D,D][D,D] [D,D]2 | %41
 AA G-[G,G-] [G,G]2 | z G[K:bass] [F,D][F,D] [F,D]2 | [F,D][F,=CD] [G,B,D][E,B,D] .[A,D]2 | %44
 z C D,4 | z2 G,,4- |[M:2/4] G,,2 D,2- | D,2 z2 |] %48
V:3
 x6 | DD z A [A,DF][K:bass][A,D] | [A,C]4 z2[K:treble] | x6 | .F2 z2 z2 | DD z A Fd | %6
 z ^A, A,2 cc | x6 | x6 | x6 | x6 | x6 | x4[K:treble] x2 | DD z A FD | z B, G2 cB | %15
 A,[K:bass]G, F,2[K:treble] [A,CF][CE] | F,[G,B,] [F,A,]2 z2 |[M:4/4][K:treble] [CE]>^D EA z2 z B | %18
 x8 | x8 | x8 | [Ec]>=c ^cc z2 z =f | x8 | D-[D-B][D-F][D^G] z DCA | .^G2 GA [EG]2 z2 | %25
 [CE]>^D EA z2 z B | x6[K:bass] x2 | x3[K:treble] x5 | x8 | [Ec]>=c ^cc z2 z c | x8 | %31
 [Fd]c=c^c .^G2 z d |[M:3/4] x6 | x6 | x6 | x6 | x6 | EF CC z A | x6 | FG DD z B | x6 | %41
 ff z B, z d | x6 | z2 z2 E2 | x6 | x2[K:treble] x4 |[M:2/4] x4 | x4 |] %48
V:4
 x6 | z2 D2 z2[K:bass] | x5[K:treble] x | x6 | x6 | z2 D2 z2 | x6 | x6 | x6 | x6 | x6 | x6 | %12
 x4[K:treble] x2 | z2 D2 z2 | x6 | x[K:bass] x3[K:treble] x2 | x6 |[M:4/4][K:treble] z4 z2 A,2 | %18
 x8 | x8 | x8 | z4 z2 A,2 | x8 | x8 | x8 | z4 z2 A,2 | x6[K:bass] x2 | x3[K:treble] x5 | x8 | %29
 z4 z2 A,2 | x8 | x8 |[M:3/4] x6 | x6 | x6 | x6 | x6 | z2 z2 C2 | x6 | z2 z2 D2 | x6 | z2 z2 B,2 | %42
 x6 | x6 | x6 | x2[K:treble] x4 |[M:2/4] x4 | x4 |] %48
V:5
 x6 | z2 D,2 D,2 | x6 | x6 | x6 | z2 D,2[K:treble] [D,A,]2 | .[F,^A,]2 z2[K:bass] z2 | x6 | %8
 x4[K:treble] x2 | z2 A,2 A,,2 | x6 | z2 A,,2 A,,,2 | x6 | z2 D,2 .[D,D]2 | %14
 .[G,B,]2 z2[K:treble] z2 | z2 D,2 A,,2 | x6 |[M:4/4] A,,6[K:treble] z2 | D,4[K:bass] z4 | %19
 z2[K:treble] B,2 z4 | E,,2 A,,2 z4 | A,,6[K:treble] z2 | D,4[K:bass] z4 | [B,,F,A,]6 [B,,F,]2 | %24
 E,2 B,,2 z4 | A,,6[K:treble] z2 | D,4[K:bass] z4 | ^G,4 B,2 z2 | E,,4 z4 | A,,6[K:treble] z2 | %30
 D,4[K:bass] z4 | E,4 E,,4[K:treble] |[M:3/4][K:bass] [E,^G,]4 z2 | z2[K:treble] B,4 | %34
 z2 A,4[K:treble] | z2 B,4[K:bass] | z2 G,4[K:treble] | z2 z2 A,2 | A,2 z2 z2 | z2[K:bass] z2 D,2 | %40
 x6 | z2 .[G,B,]2 z2 | [G,D]2[K:bass] z2 z2 | x6 | A,,2 z2 z2 | x6 |[M:2/4] x4 | x4 |] %48
V:6
 x6 | x6 | x6 | x6 | x6 | x3[K:treble] x3 | x4[K:bass] x2 | x6 | x4[K:treble] x2 | x6 | x6 | x6 | %12
 x6 | x6 | x4[K:treble] x2 | x6 | x6 |[M:4/4] x3/2[K:treble] x13/2 | x4[K:bass] x4 | %19
 E,6[K:treble] z2 | x8 | x3/2[K:treble] x13/2 | x4[K:bass] x4 | x8 | x8 | x3/2[K:treble] x13/2 | %26
 x4[K:bass] x4 | x8 | x8 | x3/2[K:treble] x13/2 | x4[K:bass] x4 | x5[K:treble] x3 | %32
[M:3/4][K:bass] x6 | x[K:treble] x5 | x3[K:treble] x3 | x5[K:bass] x | x4[K:treble] x2 | x6 | x6 | %39
 x2[K:bass] x4 | x6 | x6 | x2[K:bass] x4 | x6 | x6 | x6 |[M:2/4] x4 | x4 |] %48

